X:1
T:Wooden Heart
T:Wooden Heart
T:Fred Wise, Ben Weisman: Kay Twomey: and Berthold Kaempfert
C:Muss i Denn?, traditional German tune
Z:All Rights Reserved
L:1/4
M:4/4
K:C
V:1 treble 
%%MIDI program 4
V:1
 z2"^N.C." C D |:"C" E2 E G |"G7" F2 F A |"C" G3/2 A/ G F | E4 | G3/2 A/ G F | E2 E G | %7
w: Can't you|see I love|you please dont|break my heart in|two|that's not hard to|do cause I|
w: |you say good-|bye then I|know that I would|cry|May- be I would|die * *|
"Dm" F2 F E |1"G7" D2 G2 |"C" E4- | E2"^N.C." C D :|2"G7" D2 E2 ||"C" C4- |"F" C2"C" C"^N.C." E | %14
w: don't have a|wood- en|heart|* and if|wood- en|heart|* there's no|
w: |||||||
"Dm" D3 E |"G7" F3 D |"C" E3 F |"C7" G2 G G |"F" A2 A2 | c2 B A |"C" G4- |"G7" G2"^N.C." C D | %22
w: strings up-|on this|love of|mine It was|al- ways|you from the|start|* treat me|
w: ||||||||
"C" E2 E G |"G7" F2 F A |"C" G3/2 A/ G F | E3 E | G3/2 A/ G F | E2 E G |"Dm" F2 F E |"G7" D2 E2 | %30
w: nice treat me|good, treat me|like you real- ly|should cause|I'm not made of|wood and I|don't have a|wood- en|
w: ||||||||
"C" C4- |"F" C2"C" z2 |] %32
w: heart.||
w: ||

